!!!COM: Palestrina, Giovanni Perluigi da
!!!OPR: Missa Ecce sacerdos magnus
!!!OMD: Credo
!!!OTL: Crucifixus
**kern	**kern	**kern
*Ibass	*Icalto	*Icant
!Bassus	!Altus	!Cantus
*clefF4	*clefG2	*clefG2
*k[]	*k[]	*k[]
*G:mix	*G:mix	*G:mix
*M4/2	*M4/2	*M4/2
=103	=103	=103
0G	0r	0r
=104	=104	=104
1E	0r	0r
1A	.	.
=105	=105	=105
1G	1r	0r
2r	[1g	.
[2c	.	.
=106	=106	=106
2c]	1g]	0r
2B-	.	.
2G	1e	.
2A	.	.
=107	=107	=107
2.F	0a	0r
4G	.	.
4A	.	.
4B	.	.
[2c	.	.
=108	=108	=108
2c]	1g	1r
4B	.	.
4A	.	.
2B	2r	[1dd
2G	[2g	.
=109	=109	=109
1d	2g]	1dd]
.	2f	.
1G	2d	1b
.	2e	.
=110	=110	=110
1r	2.c	0ee
.	4d	.
2r	4e	.
.	4f	.
[2c	[2g	.
=111	=111	=111
2c]	4g]	1dd
.	4f	.
2B-	2d	.
2G	1e	2r
2A	.	[2cc
=112	=112	=112
2F	2.d	2cc]
2.G	.	2b-
.	8c	.
.	8d	.
.	2e	2g
4E	.	.
2F	[2c	2a
=113	=113	=113
1D	2c]	2.f
.	2B	.
.	.	4g
[1C	1c	4a
.	.	4b
.	.	4cc
.	.	4dd
=114	=114	=114
1C]	1r	4ee
.	.	4ff
.	.	1ee
1r	1c	.
.	.	4dd
.	.	4cc
=115	=115	=115
1G	1.g	1b
[1d	.	[1a
.	2f	.
=116	=116	=116
2d]	2d	1a]
2c	2e	.
2A	2f	1r
[2c	[2e	.
=117	=117	=117
2c]	4e]	1g
.	4f	.
4B	2.g	.
4A	.	.
2G	.	[1dd
.	4f	.
2B	2d	.
=118	=118	=118
0A	1e	2dd]
.	.	2cc
.	2r	2a
.	2c	[2cc
=119	=119	=119
1.E	1.g	2cc]
.	.	4b
.	.	4a
.	.	2g
2F	2f	2a
=120	=120	=120
2G	2d	2b-
2D	1f	4a
.	.	4b
1A	.	4cc
.	.	4dd
.	4e	[2ee
.	4d	.
=121	=121	=121
2r	2c	4ee]
.	.	4dd
2C	2e	1cc
[1G	2.d	.
.	.	4b-
.	4c	4a
=122	=122	=122
2G]	4d	2b-
.	4e	.
2F	2.f	2a
2D	.	1a
.	4e	.
[2F	2c	.
=123	=123	=123
2F]	2d	1r
4E	2.e	.
4D	.	.
2C	.	1cc
.	4d	.
2E	[2c	.
=124	=124	=124
1D	2c]	1.ff
.	2B	.
1C	[1c	.
.	.	2ee
=125	=125	=125
2r	1c]	2cc
1c	.	2ee
.	1G	1dd
2B	.	.
=126	=126	=126
2.c	1r	2.ee
4B	.	4dd
2A	2r	2cc
2G	[2g	2b
=127	=127	=127
2c	2g]	1a
2d	2f#	.
[1G	2.g	1b
.	4f	.
=128	=128	=128
1G]	2e	2r
.	2d	1dd
1r	2g	.
.	2a	2cc#
=129	=129	=129
2r	1d	2.dd
2G	.	.
.	.	4cc
2G	2r	2b-
2F	2d	2a
=130	=130	=130
2B-	2d	2dd
2A	2c	2ee
2.F	[1f	2.a
4G	.	4b
=131	=131	=131
4A	2f]	1cc
4B	.	.
1c	2e	.
.	2c	1r
2B	2d	.
=132	=132	=132
2G	2e	1r
2A	1f	.
1B-	.	2r
.	4e	2dd
.	4d	.
=133	=133	=133
1A	1e	2dd
.	.	2cc
1r	4d	[1ff
.	4e	.
.	4f	.
.	4g	.
=134	=134	=134
2r	2.a	2ff]
2A	.	2ee
.	8g	.
.	8f	.
2A	2e	2cc
2D	2f	2dd
=135	=135	=135
2.A	1c	2.ee
4B	.	4dd
4c	1r	2ee
4A	.	.
[2d	.	2ff
=136	=136	=136
2d]	2r	1ee
2c#	2a	.
2d	2a	1r
2B-	2d	.
=137	=137	=137
0A	2.a	2r
.	.	2ee
.	4b	.
.	4cc	2ee
.	4a	.
.	[2cc	2a
=138	=138	=138
0r	4cc]	2.ee
.	4b	.
.	2a	.
.	.	4ff
.	2g	4gg
.	.	4ee
.	[2a	[2ff
=139	=139	=139
1A	4a]	2ff]
.	4g	.
.	2e	1ee
1d	1f	.
.	.	2dd
=140	=140	=140
1c	1e	0ee
2A	2r	.
[2c	2e	.
=141	=141	=141
4c]	1a	0r
4B	.	.
4c	.	.
4A	.	.
2B	1g	.
[2c	.	.
=142	=142	=142
2c]	2e	0r
4B	2.g	.
4A	.	.
4G	.	.
4A	4f#	.
4B	4g	.
4c	4e	.
=143	=143	=143
1.d	2f	1r
.	4d	.
.	4e	.
.	4f	1a
.	4g	.
2c	[2a	.
=144	=144	=144
1B	2a]	1dd
.	2g#	.
[1A	2a	1cc
.	2e	.
=145	=145	=145
1A]	2f	2a
.	4e	2.cc
.	4d	.
1r	4c	.
.	4d	4b
.	4e	4cc
.	4f	4a
=146	=146	=146
0r	1.g	2b
.	.	4g
.	.	4a
.	.	4b
.	.	4cc
.	2f	[2dd
=147	=147	=147
1A	1e	2dd]
.	.	2cc#
2D	1d	2dd
2D	.	[2ff
=148	=148	=148
1.d	1r	4ff]
.	.	4ee
.	.	4ff
.	.	4dd
.	1a	1ee
2c	.	.
=149	=149	=149
2B	2d	1dd
2.G	2d	.
.	[1g	1r
4A	.	.
4B	.	.
4c	.	.
=150	=150	=150
1d	2g]	1dd
.	2f	.
2c	2e	2g
2B	4d	2g
.	4e	.
=151	=151	=151
1A	4f	1.cc
.	4e	.
.	4c	.
.	4d	.
1G	4e	.
.	4f#	.
.	[2g	2b
=152	=152	=152
1r	2g]	1a
.	2f	.
1G	2e	4b
.	.	4cc
.	2d	4dd
.	.	4b
=153	=153	=153
2C	1e	4cc
.	.	4dd
2C	.	2.ee
[1c	1r	.
.	.	4dd
.	.	4ee
.	.	4cc
=154	=154	=154
2c]	1g	1dd
2B	.	.
2A	2c	[1cc
[2F	2c	.
=155	=155	=155
4F]	1.f	1cc]
4G	.	.
4A	.	.
4B	.	.
2c	.	1r
4C	2e	.
4D	.	.
=156	=156	=156
4E	2e	1gg
4F	.	.
2G	2.d	.
2F	.	2cc
.	4c	.
2E	[2c	2cc
=157	=157	=157
1D	2c]	1.ff
.	2B	.
2C	1c	.
[2c	.	2ee
=158	=158	=158
2c]	1G	2dd
2B	.	2.gg
1c	2r	.
.	.	4ff
.	[2g	4ee
.	.	4dd
=159	=159	=159
0C	4g]	4ee
.	4f	4dd
.	4e	4cc
.	4d	4b
.	1e	1cc
=160	=160	=160
[0G	[0d	[0b
=161	=161	=161
0G]	0d]	0b]
*-	*-	*-
!!!CDT: 1525/^1526/-1594/2/2
!!!OCY: Italia
!!!AGN: Mass (Tenor)
!!!AST: renaissance, vocal
!!!ASW: Antiphon
!!!PWK: Masses, Book I
!!!RNB: Cadence finals: D,C
!!!YOR: Le Opere Complete, v. 1, p. 1
!!!YOO: Rome, Italy: Fratelli Scalera
!!!END: 1992//
!!!EED: John Miller
!!!YEC: Copyright 2000, John Miller
!!!YEN: United States of America
!!!YEM: Rights to all derivative electronic formats reserved.
!!!YEM: Refer to licensing agreement for further details.
!!!YEM: This file must be accompanied by the licensing agreement.
!!!YEM: A copy of the licensing agreement may be found at http://www.music-cog.ohio-state.edu/HumdrumDatabases/Palestrina/license.txt
!!!EMD: converted to Humdrum by Bret Aarden
